X:311
T: Der geistliche Tannebaum
N: A0656B
O: Europa, Mitteleuropa, Deutschland
N: Muenchen 1642
R: Romanze, Ballade, Lied, religioeses Lied
M: 4/4
L: 1/8
K: G
d2 | d3dd2=f2 | c3cc2d2 | c2c2_B3c | A4z2
d2 | d3dd2=f2 | c3cc2d2 | c2c2_B3c | A4z2
A2 | _B2B2c2c2 | d4d2=f2 | _e2d2c3c | _B4z2
A2 | _B2c2d2B2 | c4c2d2 | _B2c2A3A | G6

@@@ Tune index: 624
